assets/space-color/SpaceColor4.svg

<svg xmlns="http://www.w3.org/2000/svg" data-name="Layer 1" viewBox="0 0 128 128"><path fill="#603416" d="M38.476 34.4a6.517 6.517 0 101.908 4.607 6.495 6.495 0 00-1.908-4.607zm28.083 41.124a3.62 3.62 0 101.06 2.559 3.609 3.609 0 00-1.06-2.559zM64 71.848a6.242 6.242 0 015.657 3.612 12.78 12.78 0 10-17.89-15.148 1.306 1.306 0 01-2.5-.746 15.386 15.386 0 1120.968 18.507v.01a6.235 6.235 0 01-12.47 0v-.013a15.375 15.375 0 01-8.55-9.814 1.3 1.3 0 112.5-.715 12.784 12.784 0 006.625 7.916A6.243 6.243 0 0164 71.848zm29.863-16.577a4.921 4.921 0 100 6.969 4.931 4.931 0 000-6.964zm-3.482-4.058a7.536 7.536 0 015.331 12.867 7.545 7.545 0 01-3.587 2A28.2 28.2 0 1160.691 36a1.307 1.307 0 11.306 2.6A25.586 25.586 0 1089.49 66.241a7.536 7.536 0 01-4.44-12.814v-.005a7.571 7.571 0 011.64-1.245 25.574 25.574 0 00-18.343-13.39 1.306 1.306 0 11.44-2.575 28.2 28.2 0 0120.387 15.1 7.545 7.545 0 011.207-.099zm3.052 36.57a1.3 1.3 0 012.033 1.635A40.435 40.435 0 0181.435 100.5a40.45 40.45 0 01-53.6-54.64q-.218-.192-.423-.4A9.131 9.131 0 0139.5 31.818a40.453 40.453 0 0160.221 51.168 1.307 1.307 0 11-2.309-1.226 37.832 37.832 0 00-56.1-48.043A9.134 9.134 0 0130.037 47.3 37.844 37.844 0 0080.31 98.142a37.82 37.82 0 0013.123-10.359z"/><path fill="#f16a73" fill-rule="evenodd" d="M27.354 39.009A6.515 6.515 0 1038.476 34.4a6.522 6.522 0 00-11.122 4.609z"/><path fill="#c1d963" fill-rule="evenodd" d="M66.559 75.524a3.619 3.619 0 100 5.119 3.623 3.623 0 000-5.119z"/><path fill="#59c4c6" fill-rule="evenodd" d="M85.457 58.753a4.925 4.925 0 108.406-3.482 4.93 4.93 0 00-8.406 3.482z"/></svg>

<svg id="Layer_1" data-name="Layer 1" xmlns="http://www.w3.org/2000/svg" viewBox="0 0 128 128"><title>Artboard 3</title><path d="M38.476,34.4a6.517,6.517,0,1,0,1.908,4.607A6.495,6.495,0,0,0,38.476,34.4ZM66.559,75.524a3.62,3.62,0,1,0,1.06,2.559A3.609,3.609,0,0,0,66.559,75.524ZM64,71.848a6.242,6.242,0,0,1,5.657,3.612A12.78,12.78,0,1,0,51.767,60.312a1.306,1.306,0,0,1-2.5-.746A15.386,15.386,0,1,1,70.235,78.073v.01a6.235,6.235,0,0,1-12.47,0V78.07a15.375,15.375,0,0,1-8.55-9.814,1.3,1.3,0,1,1,2.5-.715,12.784,12.784,0,0,0,6.625,7.916A6.243,6.243,0,0,1,64,71.848ZM93.863,55.271a4.921,4.921,0,1,0,0,6.969l0,0a4.931,4.931,0,0,0,0-6.964Zm-3.482-4.058A7.536,7.536,0,0,1,95.712,64.08l0,0,0,0,0,0a7.545,7.545,0,0,1-3.587,2A28.2,28.2,0,1,1,60.691,36a1.307,1.307,0,1,1,.306,2.6A25.586,25.586,0,1,0,89.49,66.241a7.536,7.536,0,0,1-4.44-12.814l0-.005a7.571,7.571,0,0,1,1.64-1.245,25.574,25.574,0,0,0-18.343-13.39,1.306,1.306,0,1,1,.44-2.575,28.2,28.2,0,0,1,20.387,15.1A7.545,7.545,0,0,1,90.381,51.213Zm3.052,36.57a1.3,1.3,0,0,1,2.033,1.635A40.435,40.435,0,0,1,81.435,100.5h0l0,0a40.45,40.45,0,0,1-53.6-54.64q-.218-.192-.423-.4A9.131,9.131,0,0,1,39.5,31.818,40.453,40.453,0,0,1,99.721,82.986a1.307,1.307,0,1,1-2.309-1.226,37.832,37.832,0,0,0-56.1-48.043A9.134,9.134,0,0,1,30.037,47.3,37.844,37.844,0,0,0,80.31,98.142l0,0A37.82,37.82,0,0,0,93.433,87.783Z" style="fill:#603416"/><path d="M27.354,39.009A6.515,6.515,0,1,0,38.476,34.4,6.522,6.522,0,0,0,27.354,39.009Z" style="fill:#f16a73;fill-rule:evenodd"/><path d="M66.559,75.524a3.619,3.619,0,1,0,0,5.119A3.623,3.623,0,0,0,66.559,75.524Z" style="fill:#c1d963;fill-rule:evenodd"/><path d="M85.457,58.753a4.925,4.925,0,1,0,8.406-3.482A4.93,4.93,0,0,0,85.457,58.753Z" style="fill:#59c4c6;fill-rule:evenodd"/></svg>
